X:1
T:Title
%%score { ( 1 3 ) | ( 2 4 ) }
L:1/8
Q:1/4=100
M:4/4
K:Ab
V:1 treble nm="Grand Piano"
V:3 treble 
V:2 bass 
V:4 bass 
V:1
 [Ec]3- [Ec]/[Fd]/ [Ec]>[EB] (3[F-B]F[A,DF] | E4 A2 z2 | B3- B/c/ B>A e>c | B6 z2 | %4
w: William~J.~Kirkpatrick * * * * * * *||||
 [Ec]3- [Ec]/[Fd]/ [Ec]>[DB] (3[CA][DB][Ec] | [Fd]6 (3[F-d]F[B,FB] | e6 z2 | A8 | %8
w: ||||
 [FA]3- [FA]/[FB]/ [FA]>[FA] (3[DF][FA][Fd] | [Ec]6 z2 | B3- B/c/ B>B (3GB[Ge] | [F=d]6 c>d | %12
w: ||||
 e6 z2 | [EAc]6 [A=d]>[Ad] | [Ge]6 z2 | E8 | [Ec]3- [Ec]/[Fd]/ [Ec]>[EB] (3[F-B]F[A,DF] | E4 z4 | %18
w: ||||||
 B3- B/c/ B>A e>c | B6 z2 | [Ec]3- [Ec]/[Fd]/ [Ec]>[DB] (3[CA][DB][Ec] | [Fd]6 (3[F-d]F[B,FB] | %22
w: ||||
 e6 z2 |[M:8/4] A8 z8 |] %24
w: ||
V:2
 [A,,A,]3- [A,,A,]/[A,,A,]/ [A,,A,]>[C,A,] (3[D,A,]-[D,A,A]D, | A,,6 z2 | %2
 [E,G,E]3- [E,G,E]/[E,A,E]/ [E,G,E]>[E,CE] [E,CE]>[E,A,E] | [E,G,E]6 z2 | %4
 [A,,A,]3- [A,,A,]/[A,,A,]/ [A,,A,]>[A,,A,] (3:2:2[A,,A,]2 [A,,A,] | [D,A,]6 (3[D,A,]-[D,A,c]D, | %6
 [E,CE]>[E,C] [E,C]>[E,C] [E,C]2 E,>E, | A,,>A,, D,>D, A,,4 | %8
 [D,D]3- [D,D]/[D,D]/ [D,D]>[D,D] (3:2:2[D,A,]2 [D,A,] | [A,,A,]6 z2 | %10
 [E,G,E]3- [E,G,E]/[E,A,E]/ [E,G,E]>[E,G,E] (3[E,-B,-E][E,B,G][E,B,] | %11
 [B,,B,]6[K:treble] [A,B,E]>[A,B,F] | G6[K:bass] z2 | A,6 [F,B,]>[F,B,] | %14
 [E,B,]2 E,>G, B,>B, B,,>B,, | z z/ G,/ A,>A, B,4 | %16
 [A,,A,]3- [A,,A,]/[A,,A,]/ [A,,A,]>[C,A,] (3[D,A,]-[D,A,A]D, | A,,6 z2 | %18
 [E,G,E]3- [E,G,E]/[E,A,E]/ [E,G,E]>[E,CE] [E,CE]>[E,A,E] | [E,G,E]6 z2 | %20
 [A,,A,]3- [A,,A,]/[A,,A,]/ [A,,A,]>[A,,A,] (3:2:2[A,,A,]2 [A,,A,] | [D,A,]6 (3[D,A,]-[D,A,c]D, | %22
 [E,CE]>[E,C] [E,C]>[E,C] [E,C]2 E,>E, |[M:8/4] A,,>A,,D,>D, A,,4 z8 |] %24
V:3
 x8 | [A,C]6 z2 | x8 | x8 | x8 | x8 | z z/ E/ A>A A>A [EGc]>[DGB] | C>[CE] [DF]>[DF] [CE]4 | x8 | %9
 x8 | x8 | x8 | z2 B,>B, B,>G (3GA[EGB] | x8 | z2 B,>B, z z/ [EG]/ [B,=DG]>[A,DF] | %15
 [G,B,]>B, C>C D4 | x8 | [A,C]4- [A,CA]2 z2 | x8 | x8 | x8 | x8 | z z/ E/ A>A A>A [EGc]>[DGB] | %23
[M:8/4] C>[CE][DF]>[DF] [CE]4 z8 |] %24
V:4
 x8 | x8 | x8 | x8 | x8 | x8 | x8 | x8 | x8 | x8 | x8 | x6[K:treble] x2 | %12
 [G,B,]2[K:bass] G,>F, E,>[E,B,E] (3[E,-B,-E][E,B,F]E, | x8 | x8 | E,8 | x8 | x8 | x8 | x8 | x8 | %21
 x8 | x8 |[M:8/4] x16 |] %24

